icon-svg/aqara-u100.svg

<svg xmlns="http://www.w3.org/2000/svg" fill="#44739e" viewBox="0 0 24 24"><path d="M11.3 13.467a1.2 1.2 0 0 0 0-2.38 1.2 1.2 0 0 0 0 2.38m6.459-11.012c0-.01-.008-.02-.022-.03a.843.843 0 0 0-.547-.325.76.76 0 0 0-.127-.011l-.456-.037H7.516A1.423 1.423 0 0 0 6.1 3.469v17.409a1.024 1.024 0 0 0 1.028 1.012h9.934a.841.841 0 0 0 .843-.837V2.924a.825.825 0 0 0-.146-.469m-3.468 1.869a.068.068 0 0 0-.058-.026h-.072v-.155h.072a.056.056 0 0 0 .047-.023.11.11 0 0 0 .017-.065v-.014a.088.088 0 0 0-.019-.061.064.064 0 0 0-.051-.021.074.074 0 0 0-.056.024.14.14 0 0 0-.032.07h-.165a.27.27 0 0 1 .083-.184.25.25 0 0 1 .175-.066.243.243 0 0 1 .175.058.212.212 0 0 1 .062.163v.026a.18.18 0 0 1-.03.1.184.184 0 0 1-.085.066.145.145 0 0 1 .1.064.22.22 0 0 1 .034.128v.026a.225.225 0 0 1-.066.173.257.257 0 0 1-.184.061.32.32 0 0 1-.137-.028.223.223 0 0 1-.1-.081.25.25 0 0 1-.04-.129h.166a.1.1 0 0 0 .029.061.085.085 0 0 0 .061.022.094.094 0 0 0 .07-.026.1.1 0 0 0 .025-.071V4.4a.122.122 0 0 0-.021-.076m-.11 5.129a.2.2 0 0 1-.156-.068.265.265 0 0 1-.06-.181.267.267 0 0 1 .065-.192.242.242 0 0 1 .185-.068.238.238 0 0 1 .183.068.27.27 0 0 1 .065.2.42.42 0 0 1-.017.112q-.018.059-.042.12l-.153.364h-.169l.156-.358a.2.2 0 0 1-.057.003m.219-2.285a.245.245 0 0 1-.184.068.25.25 0 0 1-.184-.067.264.264 0 0 1-.065-.19.45.45 0 0 1 .016-.116.8.8 0 0 1 .043-.119l.173-.367h.181l-.168.349a.16.16 0 0 1 .031 0 .205.205 0 0 1 .164.066.274.274 0 0 1 .058.187.27.27 0 0 1-.065.189m-.584 4.721a.043.043 0 0 1 .04-.045h.039v-.132a.223.223 0 1 1 .443 0v.132h.039a.043.043 0 0 1 .04.045v.5a.042.042 0 0 1-.04.044h-.521a.042.042 0 0 1-.04-.044zm-2.1-2.448a.216.216 0 0 1 .036.12v.014a.22.22 0 0 1-.034.124.22.22 0 0 1-.094.083.33.33 0 0 1-.142.029.33.33 0 0 1-.142-.029.219.219 0 0 1-.127-.207v-.014a.215.215 0 0 1 .035-.12.22.22 0 0 1 .093-.085.2.2 0 0 1-.08-.071.165.165 0 0 1-.031-.1v-.019A.205.205 0 0 1 11.3 9a.3.3 0 0 1 .366 0 .206.206 0 0 1 .07.162v.022a.175.175 0 0 1-.031.1.2.2 0 0 1-.082.07.22.22 0 0 1 .092.087zm-.306-2.387a.079.079 0 0 0 .063.026.078.078 0 0 0 .065-.028.113.113 0 0 0 .023-.077V6.9a.125.125 0 0 0-.02-.078.07.07 0 0 0-.059-.027.1.1 0 0 0-.058.017.086.086 0 0 0-.034.049h-.15v-.485h.46v.155h-.3v.15a.14.14 0 0 1 .05-.028.2.2 0 0 1 .062-.01.189.189 0 0 1 .155.068.306.306 0 0 1 .055.193v.071a.267.267 0 0 1-.066.193.246.246 0 0 1-.185.068.235.235 0 0 1-.172-.067.278.278 0 0 1-.078-.188h.161a.12.12 0 0 0 .027.073zm-.2-3a.273.273 0 0 1 .077-.188.246.246 0 0 1 .18-.067.27.27 0 0 1 .186.058.207.207 0 0 1 .066.164.35.35 0 0 1-.02.115.39.39 0 0 1-.057.1l-.209.264h.29v.155h-.5v-.137l.292-.384a.22.22 0 0 0 .031-.053.14.14 0 0 0 .011-.05.067.067 0 0 0-.023-.054.1.1 0 0 0-.063-.018.083.083 0 0 0-.064.026.13.13 0 0 0-.03.074h-.167Zm.09 6.776a1.452 1.452 0 0 1 0 2.894 1.452 1.452 0 0 1 0-2.894M9 6.426l-.255.565H8.9v-.215h.16v.215h.067v.154h-.07v.132H8.9v-.132h-.346V7l.262-.572Zm.065 5.38v.387A.24.24 0 0 1 9 12.37a.312.312 0 0 1-.381 0 .246.246 0 0 1-.063-.177v-.387a.24.24 0 0 1 .064-.177.316.316 0 0 1 .381 0 .24.24 0 0 1 .061.177zm-.522-7.888.127-.057h.137v.85h-.161v-.662l-.1.039zM8.542 9h.486v.107l-.191.744h-.173l.184-.7H8.7v.128h-.16Zm7.636 12.322H7.225A.625.625 0 0 1 6.6 20.7v-6.51h9.578zm1.389-.375a.375.375 0 0 1-.375.375h-.4V2.554h.347a.431.431 0 0 1 .431.43zm-8.76-9.228a.079.079 0 0 0-.072.034.17.17 0 0 0-.022.094v.3a.17.17 0 0 0 .022.094.079.079 0 0 0 .072.034.077.077 0 0 0 .072-.034.17.17 0 0 0 .022-.094v-.3a.17.17 0 0 0-.022-.094.077.077 0 0 0-.072-.034m2.674-2.272a.12.12 0 0 0-.079.026.09.09 0 0 0-.03.071v.008a.1.1 0 0 0 .03.076.11.11 0 0 0 .079.028.108.108 0 0 0 .08-.029.1.1 0 0 0 .03-.076v-.008a.089.089 0 0 0-.03-.07.12.12 0 0 0-.08-.026m2.777 2.265a.145.145 0 1 0-.287 0v.132h.287zm-.044-4.836a.079.079 0 0 0-.065.029.122.122 0 0 0-.023.081.1.1 0 0 0 .023.07.085.085 0 0 0 .065.024.086.086 0 0 0 .066-.024.1.1 0 0 0 .023-.071.127.127 0 0 0-.023-.08.079.079 0 0 0-.066-.029M14.3 9.2a.11.11 0 0 0-.023-.074.084.084 0 0 0-.065-.026.081.081 0 0 0-.066.027.1.1 0 0 0-.023.074.11.11 0 0 0 .023.077.093.093 0 0 0 .131 0A.118.118 0 0 0 14.3 9.2m-2.819.091a.087.087 0 0 0 .067-.026.1.1 0 0 0 .025-.07v-.008a.085.085 0 0 0-.025-.065.1.1 0 0 0-.133 0 .086.086 0 0 0-.026.065V9.2a.1.1 0 0 0 .026.069.086.086 0 0 0 .066.022"/></svg>

<?xml version="1.0" encoding="UTF-8"?>
<svg width="24px" fill="#44739e" height="24px" viewBox="0 0 24 24" version="1.1" xmlns="http://www.w3.org/2000/svg" xmlns:xlink="http://www.w3.org/1999/xlink">
            <path d="m 11.3,13.467 a 1.2,1.2 0 0 0 0,-2.38 1.2,1.2 0 0 0 0,2.38 z M 17.759,2.455 v 0 c 0,-0.01 -0.008,-0.02 -0.022,-0.03 A 0.843,0.843 0 0 0 17.19,2.1 v 0 A 0.759,0.759 0 0 0 17.063,2.089 L 16.607,2.052 H 16.6 16.571 7.516 A 1.423,1.423 0 0 0 6.1,3.469 v 17.409 a 1.024,1.024 0 0 0 1.028,1.012 h 9.934 a 0.841,0.841 0 0 0 0.843,-0.837 V 2.924 A 0.825,0.825 0 0 0 17.759,2.455 Z M 14.291,4.324 A 0.068,0.068 0 0 0 14.233,4.298 H 14.161 V 4.143 h 0.072 A 0.056,0.056 0 0 0 14.28,4.12 0.112,0.112 0 0 0 14.297,4.055 V 4.041 A 0.088,0.088 0 0 0 14.278,3.98 0.064,0.064 0 0 0 14.227,3.959 0.074,0.074 0 0 0 14.171,3.983 0.138,0.138 0 0 0 14.139,4.053 h -0.165 a 0.269,0.269 0 0 1 0.083,-0.184 0.249,0.249 0 0 1 0.175,-0.066 0.243,0.243 0 0 1 0.175,0.058 0.212,0.212 0 0 1 0.062,0.163 V 4.05 a 0.178,0.178 0 0 1 -0.03,0.1 0.184,0.184 0 0 1 -0.085,0.066 0.145,0.145 0 0 1 0.1,0.064 0.22,0.22 0 0 1 0.034,0.128 V 4.434 A 0.225,0.225 0 0 1 14.422,4.607 0.257,0.257 0 0 1 14.238,4.668 0.317,0.317 0 0 1 14.101,4.64 0.223,0.223 0 0 1 14.001,4.559 0.249,0.249 0 0 1 13.961,4.43 h 0.166 a 0.1,0.1 0 0 0 0.029,0.061 0.085,0.085 0 0 0 0.061,0.022 0.094,0.094 0 0 0 0.07,-0.026 0.1,0.1 0 0 0 0.025,-0.071 V 4.4 A 0.122,0.122 0 0 0 14.291,4.324 Z m -0.11,5.129 A 0.2,0.2 0 0 1 14.025,9.385 0.265,0.265 0 0 1 13.965,9.204 v 0 a 0.267,0.267 0 0 1 0.065,-0.192 0.242,0.242 0 0 1 0.185,-0.068 0.238,0.238 0 0 1 0.183,0.068 0.27,0.27 0 0 1 0.065,0.2 v 0 a 0.424,0.424 0 0 1 -0.017,0.112 q -0.018,0.059 -0.042,0.12 L 14.251,9.808 H 14.082 L 14.238,9.45 A 0.2,0.2 0 0 1 14.181,9.453 Z M 14.4,7.168 A 0.245,0.245 0 0 1 14.216,7.236 0.249,0.249 0 0 1 14.032,7.169 0.264,0.264 0 0 1 13.967,6.979 v 0 a 0.449,0.449 0 0 1 0.016,-0.116 0.772,0.772 0 0 1 0.043,-0.119 l 0.173,-0.367 h 0.181 l -0.168,0.349 a 0.155,0.155 0 0 1 0.031,0 0.205,0.205 0 0 1 0.164,0.066 0.274,0.274 0 0 1 0.058,0.187 v 0 A 0.27,0.27 0 0 1 14.4,7.168 Z m -0.584,4.721 a 0.043,0.043 0 0 1 0.04,-0.045 h 0.039 v -0.132 a 0.223,0.223 0 1 1 0.443,0 v 0.132 h 0.039 a 0.043,0.043 0 0 1 0.04,0.045 v 0.5 a 0.042,0.042 0 0 1 -0.04,0.044 h -0.521 a 0.042,0.042 0 0 1 -0.04,-0.044 z m -2.1,-2.448 a 0.216,0.216 0 0 1 0.036,0.12 V 9.575 A 0.222,0.222 0 0 1 11.718,9.699 0.218,0.218 0 0 1 11.624,9.782 0.327,0.327 0 0 1 11.482,9.811 0.333,0.333 0 0 1 11.34,9.782 0.219,0.219 0 0 1 11.213,9.575 V 9.561 a 0.215,0.215 0 0 1 0.035,-0.12 0.218,0.218 0 0 1 0.093,-0.085 0.2,0.2 0 0 1 -0.08,-0.071 0.165,0.165 0 0 1 -0.031,-0.1 V 9.166 A 0.205,0.205 0 0 1 11.3,9 a 0.3,0.3 0 0 1 0.366,0 0.206,0.206 0 0 1 0.07,0.162 v 0.022 a 0.175,0.175 0 0 1 -0.031,0.1 0.2,0.2 0 0 1 -0.082,0.07 0.22,0.22 0 0 1 0.092,0.087 z M 11.41,7.054 A 0.079,0.079 0 0 0 11.473,7.08 0.078,0.078 0 0 0 11.538,7.052 0.113,0.113 0 0 0 11.561,6.975 V 6.9 A 0.125,0.125 0 0 0 11.541,6.822 0.07,0.07 0 0 0 11.482,6.795 0.1,0.1 0 0 0 11.424,6.812 0.086,0.086 0 0 0 11.39,6.861 H 11.24 V 6.376 h 0.46 v 0.155 h -0.3 v 0.15 a 0.142,0.142 0 0 1 0.05,-0.028 0.2,0.2 0 0 1 0.062,-0.01 0.189,0.189 0 0 1 0.155,0.068 0.306,0.306 0 0 1 0.055,0.193 V 6.975 A 0.267,0.267 0 0 1 11.656,7.168 0.246,0.246 0 0 1 11.471,7.236 0.235,0.235 0 0 1 11.299,7.169 0.278,0.278 0 0 1 11.221,6.981 h 0.161 a 0.119,0.119 0 0 0 0.027,0.073 z m -0.2,-3 a 0.273,0.273 0 0 1 0.077,-0.188 0.246,0.246 0 0 1 0.18,-0.067 0.271,0.271 0 0 1 0.186,0.058 0.207,0.207 0 0 1 0.066,0.164 v 0 a 0.352,0.352 0 0 1 -0.02,0.115 0.389,0.389 0 0 1 -0.057,0.1 L 11.433,4.5 h 0.29 v 0.155 h -0.5 V 4.518 l 0.292,-0.384 a 0.222,0.222 0 0 0 0.031,-0.053 0.142,0.142 0 0 0 0.011,-0.05 v 0 A 0.067,0.067 0 0 0 11.534,3.977 0.1,0.1 0 0 0 11.471,3.959 0.083,0.083 0 0 0 11.407,3.985 0.129,0.129 0 0 0 11.377,4.059 H 11.21 Z m 0.09,6.776 a 1.452,1.452 0 0 1 0,2.894 1.452,1.452 0 0 1 0,-2.894 z M 9,6.426 8.745,6.991 H 8.9 V 6.776 H 9.06 V 6.991 H 9.127 V 7.145 H 9.057 V 7.277 H 8.9 V 7.145 H 8.554 V 7 L 8.816,6.428 Z m 0.065,5.38 v 0.387 A 0.239,0.239 0 0 1 9,12.37 a 0.312,0.312 0 0 1 -0.381,0 0.246,0.246 0 0 1 -0.063,-0.177 v -0.387 a 0.239,0.239 0 0 1 0.064,-0.177 0.316,0.316 0 0 1 0.381,0 0.241,0.241 0 0 1 0.061,0.177 z M 8.543,3.918 8.67,3.861 h 0.137 v 0.85 H 8.646 V 4.049 l -0.1,0.039 z M 8.542,9 H 9.028 V 9.107 L 8.837,9.851 H 8.664 l 0.184,-0.7 H 8.7 V 9.279 H 8.54 Z m 7.636,12.322 H 7.225 A 0.625,0.625 0 0 1 6.6,20.7 v -6.51 h 9.578 z m 1.389,-0.375 a 0.375,0.375 0 0 1 -0.375,0.375 h -0.4 V 2.554 h 0.347 a 0.431,0.431 0 0 1 0.431,0.43 z m -8.76,-9.228 a 0.079,0.079 0 0 0 -0.072,0.034 0.17,0.17 0 0 0 -0.022,0.094 v 0.3 a 0.17,0.17 0 0 0 0.022,0.094 0.079,0.079 0 0 0 0.072,0.034 0.077,0.077 0 0 0 0.072,-0.034 0.17,0.17 0 0 0 0.022,-0.094 v -0.3 A 0.17,0.17 0 0 0 8.879,11.753 0.077,0.077 0 0 0 8.807,11.719 Z m 2.674,-2.272 a 0.119,0.119 0 0 0 -0.079,0.026 0.09,0.09 0 0 0 -0.03,0.071 v 0.008 a 0.1,0.1 0 0 0 0.03,0.076 0.111,0.111 0 0 0 0.079,0.028 0.108,0.108 0 0 0 0.08,-0.029 0.1,0.1 0 0 0 0.03,-0.076 V 9.543 a 0.089,0.089 0 0 0 -0.03,-0.07 0.12,0.12 0 0 0 -0.08,-0.026 z m 2.777,2.265 a 0.145,0.145 0 1 0 -0.287,0 v 0.132 h 0.287 z M 14.214,6.876 a 0.079,0.079 0 0 0 -0.065,0.029 0.122,0.122 0 0 0 -0.023,0.081 v 0 a 0.1,0.1 0 0 0 0.023,0.07 0.085,0.085 0 0 0 0.065,0.024 0.086,0.086 0 0 0 0.066,-0.024 0.1,0.1 0 0 0 0.023,-0.071 v 0 A 0.127,0.127 0 0 0 14.28,6.905 0.079,0.079 0 0 0 14.214,6.876 Z M 14.3,9.2 v 0 A 0.111,0.111 0 0 0 14.277,9.126 0.084,0.084 0 0 0 14.212,9.1 0.081,0.081 0 0 0 14.146,9.127 0.1,0.1 0 0 0 14.123,9.201 v 0 a 0.111,0.111 0 0 0 0.023,0.077 0.093,0.093 0 0 0 0.131,0 A 0.118,0.118 0 0 0 14.3,9.2 Z m -2.819,0.091 a 0.087,0.087 0 0 0 0.067,-0.026 0.1,0.1 0 0 0 0.025,-0.07 V 9.187 a 0.085,0.085 0 0 0 -0.025,-0.065 0.1,0.1 0 0 0 -0.133,0 0.086,0.086 0 0 0 -0.026,0.065 V 9.2 a 0.1,0.1 0 0 0 0.026,0.069 0.086,0.086 0 0 0 0.066,0.022 z"/>

</svg>
